X:20
T:Lei Bhos mons of 1tr
M:3/8
L:1/8
K:A
BB ce/f/|gf d2|d/e/e/f/ ec|B2 A2|F2 D2 D2 | B2AB | B2zB | B2AB | B>d B>c | B2 B2 | e2 d2 | B2B2 | B2BB | B2B2 | e2dB | B2zB | e2z2 | B2BG | B>B B2 | B2BA | B>B BB Bc | d2 d2 | e2 d2 | d2 d2 | d2c2 | BB/d/ | de d2 | c2 | B2Bc | BBcB | cB/B/ BG | B2BB | BB/B/B | d2 dB | c2 d2 | c2d2 | B2zB | B2zB | B2AG | B2B2 | BAGB | d2z2 | B2BB | B2zB | BG AB | c2 B2 | B2B2 | d2e>f f2 | e2 e2 | e2 B/c/B/ | BA Bc/A/ | G2 GB | c2 Bc | B2 B/A/B/A/ | B2 BB B2 | B2Bd | ec A/B/A | B2 BG | B2B/2 | B2Bd | d2 d2 | c2 B2 | B2zB | B2AB | B2 B/A/B/A/ | B2 B2 | B2zB | B2zB | BB/B/B | B2BG | BB/B/BG | B2BB | B2B2 | dB/B/BG | B2BB | B2B2 | B2zB | B2B2 | B2Bd | df fe | fe dc | d2 z>e | d2 B/c/d/e/ | fe de/f/ | fe dc | A2 A2 | c2 | d2 B>A | BB/B/BB | B2BG | BB/B/d2 | e2 fe | ce f/f/g/e/ | f2ad | d2 dB | c2 d2 | d2 c2 | A2 A2 | A2 AB | c3 | d3/2c/2 | (c2c) | (c2) (c/)(c/)f) f | d2A G2A | B2A B2A | B2c   c/2/ B2 | B2B2 | B2B2 | B2BG | B4 | B2zB | c2 | d2 d>c | d>c B>c | d2dc | c2 f>f | d2z2 | B2Bd | B2BG | BB/B/B/B/ | cd ef | e2 ed | e2 f2 | f2 :|2 f e3/2 | ed ed | d2 d2 | d2 d2 | e2 d2 | AG A2 AB | d2 d>A | c2 c2 | c2 | B2BB | B2BB | BB/B/BB | BABG | BB/B/BB |
B2G2 | B2zB | d2z>2 | B2B2 | B2zB | c2z2 | B2zB | B2BG | B2Bd | dc B/A/B/c/ | B2zu | B2z2 | B2zB | B2z2 | B2BG | BE/F/ | BG BA | B2 B2 | B2 BB | c2d2 | d2 d2 | B2zB | B2zB | B2cd | dedc | d2z2 | BG AG | B2 B2 | c2 c2 | B2B2 | e2g2 | e2de | g2 d2 | B2B | A4- | AF/G/ | AG Ac | d2 d2 | c2 | e2 e/2f/2 | f2 d2 | c2 z z2 | c2 c2 | c3 | f3 g2 | fd c2 | A2 A2 | G2 G2 | B2Bd | de/f/ f/=c/e/g/ | (3fef | (3(fg) | (g/f/g/) | de d2 | f2 e2 | f2 f2 | f2 f2 | f2 ef | f2 ef | fe de | f2 ge | c2 | d2 f2 | f2 ef | g2 f2 | e2 e2 | g2 e2 | g2 e2 | a>B cd | edce | fed2 | e2dc | d2 Bc | c2 B2 | d2BB | B2B2 | B2zB | B2zB | B2Bd | dB BB | c2 e2 | f2e2 | f2 dB | c2 c2 | B2B/2 | B2B2 | B2BA | B2BG | de/f/ d/c/ | B2AB | df/d/ | d4 | AG A2 | A2 AB | d2 AB | d2 ef | fe g2 | g2 f2 | e>c d2 | c2 BA | c2 c2 | c2 c2 | c2 | f2 d>c | B2